static/img/kroki/7dbaad41fb0ec984b9be43ffab9f0e5f.svg

<?xml version="1.0" encoding="us-ascii" standalone="no"?><svg xmlns="http://www.w3.org/2000/svg" xmlns:xlink="http://www.w3.org/1999/xlink" contentStyleType="text/css" height="152px" preserveAspectRatio="none" style="width:279px;height:152px;" version="1.1" viewBox="0 0 279 152" width="279px" zoomAndPan="magnify"><defs/><g><!--class gcp_sql_database_instance--><g id="elem_gcp_sql_database_instance"><rect codeLine="22" fill="#3D176E" height="39.7891" id="gcp_sql_database_instance" rx="2.5" ry="2.5" style="stroke:#000D19;stroke-width:0.5;" width="265" x="7" y="7"/><ellipse cx="22" cy="26.8945" fill="#ADD1B2" rx="11" ry="11" style="stroke:#181818;stroke-width:1.0;"/><path d="M24.9688,32.5352 Q24.3906,32.832 23.75,32.9727 Q23.1094,33.1289 22.4063,33.1289 Q19.9063,33.1289 18.5781,31.4883 Q17.2656,29.832 17.2656,26.707 Q17.2656,23.582 18.5781,21.9258 Q19.9063,20.2695 22.4063,20.2695 Q23.1094,20.2695 23.75,20.4258 Q24.4063,20.582 24.9688,20.8789 L24.9688,23.5977 Q24.3438,23.0195 23.75,22.7539 Q23.1563,22.4727 22.5313,22.4727 Q21.1875,22.4727 20.5,23.5508 Q19.8125,24.6133 19.8125,26.707 Q19.8125,28.8008 20.5,29.8789 Q21.1875,30.9414 22.5313,30.9414 Q23.1563,30.9414 23.75,30.6758 Q24.3438,30.3945 24.9688,29.8164 L24.9688,32.5352 Z " fill="#000000"/><text fill="#D9B8FF" font-family="Helvetica" font-size="17" lengthAdjust="spacing" textLength="223" x="41" y="32.7798">gcp_sql_database_instance</text></g><!--class gcp_sql_operation--><g id="elem_gcp_sql_operation"><rect codeLine="24" fill="#3D176E" height="39.7891" id="gcp_sql_operation" rx="2.5" ry="2.5" style="stroke:#000D19;stroke-width:0.5;" width="191" x="44" y="106.79"/><ellipse cx="59" cy="126.6845" fill="#ADD1B2" rx="11" ry="11" style="stroke:#181818;stroke-width:1.0;"/><path d="M61.9688,132.3252 Q61.3906,132.622 60.75,132.7627 Q60.1094,132.9189 59.4063,132.9189 Q56.9063,132.9189 55.5781,131.2783 Q54.2656,129.622 54.2656,126.497 Q54.2656,123.372 55.5781,121.7158 Q56.9063,120.0595 59.4063,120.0595 Q60.1094,120.0595 60.75,120.2158 Q61.4063,120.372 61.9688,120.6689 L61.9688,123.3877 Q61.3438,122.8095 60.75,122.5439 Q60.1563,122.2627 59.5313,122.2627 Q58.1875,122.2627 57.5,123.3408 Q56.8125,124.4033 56.8125,126.497 Q56.8125,128.5908 57.5,129.6689 Q58.1875,130.7314 59.5313,130.7314 Q60.1563,130.7314 60.75,130.4658 Q61.3438,130.1845 61.9688,129.6064 L61.9688,132.3252 Z " fill="#000000"/><text fill="#D9B8FF" font-family="Helvetica" font-size="17" lengthAdjust="spacing" textLength="149" x="78" y="132.5698">gcp_sql_operation</text></g><!--link gcp_sql_database_instance to gcp_sql_operation--><g id="link_gcp_sql_database_instance_gcp_sql_operation"><path codeLine="26" d="M139.5,47.22 C139.5,62.49 139.5,83.92 139.5,100.53 " fill="none" id="gcp_sql_database_instance-to-gcp_sql_operation" style="stroke:#1A83AF;stroke-width:2.0;"/><polygon fill="#1A83AF" points="139.5,105.41,143.5,96.41,139.5,100.41,135.5,96.41,139.5,105.41" style="stroke:#1A83AF;stroke-width:2.0;"/></g><!--SRC=[XP11IyD048Nl_HKBFHSIWoQv2B5Gz5B4UXC9a-nikZJPZRDJInN_kwPLMHFJNkTzC- -zMMk90fkMzwB1fa1o4xVHfWM2HcH4TZUtjIKnLGfK5FV5XJLy5bX2W-8MwrTaNKAVU5phScFGEN7XIJTGRYgoMoEFvvd0k2y93NlKl0RdCcRInPRH2oFJ8b6gJ_QFJYCPnbSum2n9f6ya208PfdtahDN9th_4Ih-X2FsdBItZ8ER0ua2TJDaHNiX1qHzzDECzIAbD9IwzsSCn4ncaF_FL6gJTTRI2slasZf7Gyhx5-Q0LfebKyR_mtHXSTfyJLTdcxgNE9J0Ku33NnZ6O4iNxvAF7s1O9M5jpqCOtPq_JC4kYRF4yknukVm80]--></g></svg>

<svg xmlns="http://www.w3.org/2000/svg" width="279" height="152" preserveAspectRatio="none" style="width:279px;height:152px"><rect width="265" height="39.789" x="7" y="7" fill="#3D176E" rx="2.5" ry="2.5" style="stroke:#000d19;stroke-width:.5"/><circle cx="22" cy="26.895" r="11" fill="#ADD1B2" style="stroke:#181818;stroke-width:1"/><path d="M24.969 32.535q-.578.297-1.219.438-.64.156-1.344.156-2.5 0-3.828-1.64-1.312-1.657-1.312-4.782t1.312-4.781q1.328-1.656 3.828-1.656.703 0 1.344.156.656.156 1.219.453v2.719q-.625-.578-1.219-.844-.594-.281-1.219-.281-1.343 0-2.031 1.078-.688 1.062-.688 3.156 0 2.094.688 3.172.688 1.062 2.031 1.062.625 0 1.219-.265.594-.281 1.219-.86v2.72Z"/><text x="41" y="32.78" fill="#D9B8FF" font-family="Helvetica" font-size="17" textLength="223">gcp_sql_database_instance</text><rect width="191" height="39.789" x="44" y="106.79" fill="#3D176E" rx="2.5" ry="2.5" style="stroke:#000d19;stroke-width:.5"/><circle cx="59" cy="126.684" r="11" fill="#ADD1B2" style="stroke:#181818;stroke-width:1"/><path d="M61.969 132.325q-.578.297-1.219.438-.64.156-1.344.156-2.5 0-3.828-1.64-1.312-1.657-1.312-4.782t1.312-4.781q1.328-1.656 3.828-1.656.703 0 1.344.156.656.156 1.219.453v2.719q-.625-.579-1.219-.844-.594-.281-1.219-.281-1.343 0-2.031 1.078-.688 1.062-.688 3.156 0 2.094.688 3.172.688 1.062 2.031 1.062.625 0 1.219-.265.594-.281 1.219-.86v2.72Z"/><text x="78" y="132.57" fill="#D9B8FF" font-family="Helvetica" font-size="17" textLength="149">gcp_sql_operation</text><path fill="none" d="M139.5 47.22v53.31" style="stroke:#1a83af;stroke-width:2"/><path fill="#1A83AF" d="m139.5 105.41 4-9-4 4-4-4 4 9z" style="stroke:#1a83af;stroke-width:2"/></svg>
